X:1
T:Paddy O'Rafferty
C:Trad.
M:6/8
Q:200
K:D
dff cee|def gfe|faf gfe|dfe dBA|
dff cee|def gfe|faf gfe|dfe dcB|]
